flaticon/religion/stained-glass.svg

<svg xmlns="http://www.w3.org/2000/svg" width="32" height="32" viewBox="0 0 24 24">
    <path d="M 16.726562 4.089844 C 16.457031 3.75 16.128906 3.421875 15.703125 3.054688 L 12.539062 0.207031 C 12.230469 -0.0703125 11.769531 -0.0703125 11.460938 0.207031 L 8.304688 3.046875 C 7.871094 3.421875 7.542969 3.75 7.273438 4.089844 C 6.558594 4.988281 6.054688 6.035156 5.789062 7.144531 C 5.78125 7.160156 5.78125 7.175781 5.777344 7.191406 C 5.640625 7.777344 5.5625 8.378906 5.5625 8.988281 L 5.5625 24 L 18.4375 24 L 18.4375 8.988281 C 18.4375 7.214844 17.828125 5.476562 16.726562 4.089844 Z M 16.015625 4.496094 C 16.042969 4.527344 16.070312 4.558594 16.09375 4.589844 C 16.703125 5.355469 17.144531 6.238281 17.394531 7.175781 L 15.453125 9.113281 L 13.207031 9.113281 L 13.214844 7.296875 Z M 12.402344 1.167969 L 15.171875 3.660156 C 15.273438 3.746094 15.367188 3.832031 15.457031 3.914062 L 12.671875 6.699219 L 12.402344 6.699219 Z M 8.835938 3.652344 L 11.597656 1.167969 L 11.597656 6.699219 L 11.363281 6.699219 L 8.558594 3.898438 C 8.644531 3.816406 8.738281 3.738281 8.835938 3.652344 Z M 7.90625 4.589844 C 7.933594 4.550781 7.96875 4.515625 8 4.476562 L 10.792969 7.269531 L 10.792969 9.113281 L 8.546875 9.113281 L 6.609375 7.175781 C 6.855469 6.238281 7.296875 5.355469 7.90625 4.589844 Z M 6.367188 8.988281 C 6.367188 8.699219 6.390625 8.414062 6.425781 8.132812 L 7.976562 9.683594 L 7.976562 11.132812 C 7.976562 11.238281 8.019531 11.34375 8.09375 11.417969 C 8.171875 11.492188 8.273438 11.535156 8.378906 11.535156 L 10.378906 11.53125 L 8.714844 13.707031 L 6.367188 11.359375 Z M 10.792969 12.3125 L 10.792969 15.785156 L 9.289062 14.28125 Z M 6.367188 12.5 L 8.222656 14.351562 L 6.367188 16.777344 Z M 6.367188 18.101562 L 8.796875 14.925781 L 10.660156 16.792969 L 6.367188 22.410156 Z M 11.597656 23.195312 L 6.78125 23.195312 L 11.394531 17.160156 L 11.597656 17.160156 Z M 11.59375 11.101562 C 11.589844 11.074219 11.585938 11.046875 11.578125 11.019531 C 11.570312 10.996094 11.5625 10.972656 11.554688 10.949219 C 11.542969 10.929688 11.527344 10.90625 11.511719 10.886719 C 11.5 10.871094 11.492188 10.855469 11.480469 10.839844 C 11.472656 10.835938 11.464844 10.832031 11.457031 10.824219 C 11.449219 10.820312 11.445312 10.8125 11.441406 10.804688 C 11.425781 10.796875 11.410156 10.792969 11.394531 10.785156 C 11.371094 10.769531 11.347656 10.757812 11.320312 10.75 C 11.296875 10.738281 11.269531 10.734375 11.242188 10.734375 C 11.226562 10.730469 11.210938 10.722656 11.195312 10.722656 L 8.78125 10.730469 L 8.78125 9.917969 L 11.195312 9.917969 C 11.417969 9.917969 11.597656 9.738281 11.597656 9.515625 L 11.597656 7.503906 L 12.410156 7.503906 L 12.402344 9.515625 C 12.402344 9.621094 12.445312 9.726562 12.519531 9.800781 C 12.59375 9.875 12.699219 9.917969 12.804688 9.917969 L 15.21875 9.917969 L 15.21875 10.726562 L 12.871094 10.730469 C 12.765625 10.714844 12.652344 10.734375 12.558594 10.804688 C 12.453125 10.886719 12.40625 11.011719 12.410156 11.136719 L 12.410156 16.355469 L 11.597656 16.355469 L 11.597656 11.125 C 11.597656 11.117188 11.59375 11.109375 11.59375 11.101562 Z M 13.214844 12.324219 L 14.710938 14.28125 L 13.214844 15.78125 Z M 12.402344 23.195312 L 12.402344 17.160156 L 12.605469 17.160156 L 17.222656 23.195312 Z M 17.632812 22.410156 L 13.339844 16.792969 L 15.203125 14.925781 L 17.632812 18.101562 Z M 17.632812 16.777344 L 15.777344 14.351562 L 17.632812 12.5 Z M 17.632812 11.363281 L 15.285156 13.707031 L 13.621094 11.535156 L 15.621094 11.527344 C 15.84375 11.527344 16.023438 11.347656 16.023438 11.125 L 16.023438 9.683594 L 17.574219 8.132812 C 17.609375 8.414062 17.632812 8.699219 17.632812 8.988281 Z M 17.632812 11.363281"/>
</svg>

<svg xmlns="http://www.w3.org/2000/svg" width="32" height="32" viewBox="0 0 24 24">
    <path d="M16.727 4.09a7.67 7.67 0 0 0-1.024-1.035L12.54.207a.803.803 0 0 0-1.078 0l-3.156 2.84A7.776 7.776 0 0 0 7.273 4.09 7.841 7.841 0 0 0 5.79 7.145c-.008.015-.008.03-.012.046a7.906 7.906 0 0 0-.215 1.797V24h12.875V8.988c0-1.773-.609-3.511-1.71-4.898zm-.711.406a7.087 7.087 0 0 1 1.379 2.68l-1.942 1.937h-2.246l.008-1.816zm-3.614-3.328l2.77 2.492c.101.086.195.172.285.254L12.672 6.7h-.27zM8.836 3.652l2.762-2.484v5.531h-.235L8.56 3.9c.086-.083.18-.16.277-.247zm-.93.938c.028-.04.063-.074.094-.113l2.793 2.793v1.843H8.547L6.609 7.176A7.018 7.018 0 0 1 7.906 4.59zM6.367 8.988c0-.289.024-.574.059-.855l1.55 1.55v1.45c0 .105.044.21.118.285.078.074.18.117.285.117l2-.004-1.664 2.176-2.348-2.348zm4.426 3.325v3.472l-1.504-1.504zm-4.426.187l1.856 1.852-1.856 2.425zm0 5.602l2.43-3.176 1.863 1.867-4.293 5.617zm5.23 5.093H6.782l4.614-6.035h.203zm-.003-12.093c-.004-.028-.008-.055-.016-.082l-.023-.07a.596.596 0 0 0-.043-.063c-.012-.016-.02-.032-.032-.047a.082.082 0 0 1-.023-.016c-.008-.004-.012-.011-.016-.02-.015-.007-.03-.011-.046-.019a.26.26 0 0 0-.075-.035.175.175 0 0 0-.078-.016c-.015-.004-.031-.011-.047-.011l-2.414.007v-.812h2.414c.223 0 .403-.18.403-.402V7.504h.812l-.008 2.012c0 .105.043.21.118.285.074.074.18.117.285.117h2.414v.809l-2.348.003a.414.414 0 0 0-.312.075.398.398 0 0 0-.149.332v5.218h-.812v-5.23c0-.008-.004-.016-.004-.023zm1.62 1.222l1.497 1.957-1.496 1.5zm-.812 10.871V17.16h.203l4.618 6.035zm5.23-.785l-4.292-5.617 1.863-1.867 2.43 3.176zm0-5.633l-1.855-2.425 1.856-1.852zm0-5.414l-2.347 2.344-1.664-2.172 2-.008c.223 0 .402-.18.402-.402V9.684l1.551-1.551c.035.281.059.566.059.855zm0 0"/>
</svg>
